!!!!SEGMENT: pl-stab--3a--001-006_dankowski-adalbert--vespere-pastorales-fecit-potentiam.krn
!!!cenid: 18xx:3488
!!!COM: Dankowski, Adalbert
!!!COM-rismID: pe30000793
!!!CDT: ~1760-~1836
!!!CNT: Polish
!!!OPR: Vespere Pastorales
!!!OTL: Fecit potentiam
!!!OMV: 006
!!!PDT: 1804
!!!AGN: Sacred; Vespers
!!!YEC: Copyright 2022 Narodowy Instytut Fryderyka Chopina (https://polishscores.org)
!!!YEM: License CC-BY-4.0 (https://creativecommons.org/licenses/by/4.0)
!!!SMS-siglum: PL-STAb
!!!SMS-shelfmark: 3a
!!!SMS-shelfwork: 001-006 M
!!!SMS-variant:
!!!SMS-altvar:
!!!NIFC-rismSourceID: 301050554
!!!NIFC-rismChildID: 301050554
!!!NIFC-islandoraID: pl-stab:928
!!!URL-pdf-islandora: https://repozytorium.nifc.pl/islandora/object/pl-stab%3A928/datastream/PDF/view
!!!URL-scan: https://polish.musicsources.pl/pl/lokalizacje/galeria/rekopisy/4500 @EN{Scan on Polish Music Sources Website} @PL{Skany w portalu Dziedzictwo Muzyki Polskiej w otwartym dostępie}
!!!IIIF:
!!!ONB-nifc: UWAGA: części Nieszporów: 1. Dixit Dominus, 2. Confitebor, 3. Beatus vir, 4. Laudate pueri, 5. Magnificat, 6. Fecit potentiam, 7. Gloria
!!!OMD:
!!!OMD-mod: Andante
!!!AIN: 1 alto 1 bass 2 cor 1 organ 1 soprn 1 tenor 2 violn
!!!key: d
**kern	**fba	**dynam	**kern	**dynam	**kern	**dynam	**kern	**kern	**kern	**kern	**text	**kern	**kern
*	*	*	*group3	*	*group3	*	*group2	*group2	*group2	*group2	*	*group1	*group1
*part9	*	*	*part8	*	*part7	*	*part6	*part5	*part4	*part3	*	*part2	*part1
*staff9	*	*	*staff8	*	*staff7	*	*staff6	*staff5	*staff4	*staff3	*	*staff2	*staff1
*I"Organo	*	*	*I"Violino Secondo	*	*I"Violino Primo	*	*I"Baſso	*I"Tenor	*I"Alto	*I"Canto	*	*I"Cornu Secondo Ex D:	*I"Cornu Primo Ex D.
*	*	*	*mI"Violino II	*	*mI"Violino I	*	*mI"Basso	*mI"Tenore	*	*mI"Soprano	*	*mI"Corno II in D	*mI"Corno I in D
*I'org	*	*	*I'vl 2	*	*I'vl 1	*	*I'B	*I'T	*I'A	*I'S	*	*I'cor 2 in D	*I'cor 1 in D
*Iorgan	*	*	*Ivioln	*	*Ivioln	*	*Ibass	*Itenor	*Ialto	*Isoprn	*	*Icor	*Icor
*ICklav	*	*	*ICstr	*	*ICstr	*	*ICvox	*ICvox	*ICvox	*ICvox	*	*ICbras	*ICbras
*IGcont	*	*	*	*	*	*	*	*	*	*	*	*	*
*	*	*	*	*	*	*	*tacet	*tacet	*tacet	*	*	*tacet	*tacet
*clefF4	*	*	*clefG2	*	*clefG2	*	*clefF4	*clefC4	*clefC3	*clefC1	*	*clefG2	*clefG2
*	*	*	*	*	*	*	*	*mclefGv2	*mclefG2	*mclefG2	*	*	*
*	*	*	*	*	*	*	*	*	*	*	*	*ITrd-1c-2	*ITrd-1c-2
*k[b-]	*	*	*k[b-]	*	*k[b-]	*	*k[b-]	*k[b-]	*k[b-]	*k[b-]	*	*k[b-]	*k[b-]
*d:	*	*	*d:	*	*d:	*	*d:	*d:	*d:	*d:	*	*d:	*d:
*M3/4	*	*	*M3/4	*	*M3/4	*	*M3/4	*M3/4	*M3/4	*M3/4	*	*M3/4	*M3/4
=1	=1	=1	=1	=1	=1	=1	=1	=1	=1	=1	=1	=1	=1
!LO:TX:a:i:t=Andante Solo.:mod=	!	!	!	!	!	!	!	!	!	!LO:TX:a:i:t=andante:mod=	!	!	!LO:TX:a:i:t=Fecit polentiam Tacet
!	!	!	!	!	!LO:TX:a:i:t=andante Solo:mod=	!	!LO:TX:a:i:t=Canto Solo\nTacet	!LO:TX:a:i:t=Fecit Potentia Tacet Canto Solo	!LO:TX:a:i:t=Fecit potentiam Tacet	!	!	!LO:TX:a:i:t=Fecit polenciam Tacet	!
4D\	.	.	8.d/L	.	8.dd\L	.	2.ryy	2.ryy	2.ryy	0.r	.	2.ryy	2.ryy
.	.	.	16c#X/Jk	.	16cc#X\Jk	.	.	.	.	.	.	.	.
4D\	.	.	8d/L	.	8dd\L	.	.	.	.	.	.	.	.
.	.	.	8e/J	.	8ee\J	.	.	.	.	.	.	.	.
8r	.	.	8f/L	.	8ff\L	.	.	.	.	.	.	.	.
8F\	6	.	16e/L	.	16ee\L	.	.	.	.	.	.	.	.
.	.	.	16d/JJ	.	16dd\JJ	.	.	.	.	.	.	.	.
=2	=2	=2	=2	=2	=2	=2	=2	=2	=2	=2	=2	=2	=2
4G\	4#r 2	.	8c#X/L	.	8cc#X\L	.	2.ryy	2.ryy	2.ryy	.	.	2.ryy	2.ryy
.	.	.	16c#/L	.	16cc#\L	.	.	.	.	.	.	.	.
.	.	.	16A/JJ	.	16a\JJ	.	.	.	.	.	.	.	.
4F\	6	.	8d/L	.	8dd\L	.	.	.	.	.	.	.	.
.	.	.	8e/J	.	8ee\J	.	.	.	.	.	.	.	.
8r	.	.	8f/L	.	8ff\L	.	.	.	.	.	.	.	.
8F\	_	.	16e/L	.	16ee\L	.	.	.	.	.	.	.	.
.	.	.	16d/JJ	.	16dd\JJ	.	.	.	.	.	.	.	.
=3	=3	=3	=3	=3	=3	=3	=3	=3	=3	=3	=3	=3	=3
4G\	4#r 2	.	8c#X/L	.	8cc#X\L	.	2.ryy	2.ryy	2.ryy	.	.	2.ryy	2.ryy
.	.	.	16c#/L	.	16cc#\L	.	.	.	.	.	.	.	.
.	.	.	16A/JJ	.	16a\JJ	.	.	.	.	.	.	.	.
8F\L	6	.	8d/L	.	8dd\L	.	.	.	.	.	.	.	.
8E\	6\	.	8c#/J	.	8cc#\J	.	.	.	.	.	.	.	.
8F\	6	.	8d/L	.	8dd\L	.	.	.	.	.	.	.	.
8D\J	.	.	16e/L	.	16ee\L	.	.	.	.	.	.	.	.
.	.	.	16f/JJ	.	16ff\JJ	.	.	.	.	.	.	.	.
=4	=4	=4	=4	=4	=4	=4	=4	=4	=4	=4	=4	=4	=4
4G\	6	.	8e/L	.	8ee\L	.	2.ryy	2.ryy	2.ryy	.	.	2.ryy	2.ryy
.	.	.	16e/L	.	16ee\L	.	.	.	.	.	.	.	.
.	.	.	16d/JJ	.	16dd\JJ	.	.	.	.	.	.	.	.
8A\L	#_	.	4c#X/	.	4cc#X\	.	.	.	.	.	.	.	.
8E\J	.	.	.	.	.	.	.	.	.	.	.	.	.
8C#X/L	.	.	4A/	.	4a/	.	.	.	.	.	.	.	.
8AA/J	x	.	.	.	.	.	.	.	.	.	.	.	.
!	!	!	!LO:LB:g=original	!	!	!	!	!	!	!	!	!	!
=5	=5	=5	=5	=5	=5	=5	=5	=5	=5	=5	=5	=5	=5
4D\	.	.	8.d/L	.	8.dd\L	.	2.ryy	2.ryy	2.ryy	0.r	.	2.ryy	2.ryy
.	.	.	16e/Jk	.	16ee\Jk	.	.	.	.	.	.	.	.
!	!	!	!	!	!LO:LB:g=original	!	!	!	!	!	!	!	!
=-	=-	=-	=-	=-	=-	=-	=-	=-	=-	=-	=-	=-	=-
4D\	.	.	8f/L	.	8ff\L	.	.	.	.	.	.	.	.
.	.	.	8a/	.	8aa\	.	.	.	.	.	.	.	.
4D\	.	.	8f/	.	8ff\	.	.	.	.	.	.	.	.
.	.	.	8d/J	.	8dd\J	.	.	.	.	.	.	.	.
=6	=6	=6	=6	=6	=6	=6	=6	=6	=6	=6	=6	=6	=6
4C#X/	.	.	16e/LL	.	16ee\LL	.	2.ryy	2.ryy	2.ryy	.	.	2.ryy	2.ryy
.	.	.	16f/	.	16ff\	.	.	.	.	.	.	.	.
.	.	.	16g/	.	16gg\	.	.	.	.	.	.	.	.
.	.	.	16a/JJ	.	16aa\JJ	.	.	.	.	.	.	.	.
4D\	.	.	8f/L	.	8ff\L	.	.	.	.	.	.	.	.
.	.	.	16f/L	.	16ff\L	.	.	.	.	.	.	.	.
.	.	.	16e/JJ	.	16ee\JJ	.	.	.	.	.	.	.	.
4r	.	.	8d/L	.	8dd\L	.	.	.	.	.	.	.	.
.	.	.	8A/J	.	8a\J	.	.	.	.	.	.	.	.
=7	=7	=7	=7	=7	=7	=7	=7	=7	=7	=7	=7	=7	=7
8.D|>\L	.	.	8.d/L	.	8.dd\L	.	2.ryy	2.ryy	2.ryy	.	.	2.ryy	2.ryy
16F|>\Jk	.	.	16f/Jk	.	16ff\Jk	.	.	.	.	.	.	.	.
8A|>\L	.	.	8a/L	.	8aa\L	.	.	.	.	.	.	.	.
8G|>\	.	.	8g/	.	8gg\	.	.	.	.	.	.	.	.
8F|>\	.	.	8f/	.	8ff\	.	.	.	.	.	.	.	.
8E|>\J	.	.	8e/J	.	8ee\J	.	.	.	.	.	.	.	.
!LO:LB:g=original	!	!	!	!	!	!	!	!	!	!	!	!	!
=8	=8	=8	=8	=8	=8	=8	=8	=8	=8	=8	=8	=8	=8
8D|>\L	.	.	8d/L	.	8dd\L	.	2.ryy	2.ryy	2.ryy	.	.	2.ryy	2.ryy
8F|>\	.	.	8f/	.	8ff\	.	.	.	.	.	.	.	.
8D|>\	.	.	8d/	.	8dd\	.	.	.	.	.	.	.	.
8C#X|>\J	.	.	8c#X/J	.	8cc#X\J	.	.	.	.	.	.	.	.
4D\	.	.	4d/	.	4dd\	.	.	.	.	.	.	.	.
=9	=9	=9	=9	=9	=9	=9	=9	=9	=9	=9	=9	=9	=9
!	!	!	!	!LO:MO:null:mod=!LO&colon;DY&colon;ed=brack	!	!	!	!	!	!	!	!	!
!	!	!	!	!	!	!	!	!	!	!	!	!	!
!	!	!LO:DY:a:t=p.	!	!LO:MO:null:mod=p	!	!LO:DY:a:t=p.	!	!	!	!LO:TX:a:i:t=Solo	!	!	!
4D\	.	p	8.d/L	.	8.dd\L	p	2.ryy	2.ryy	2.ryy	8.dd\L	Fe-	2.ryy	2.ryy
.	.	.	16c#X/Jk	.	16cc#X\Jk	.	.	.	.	16cc#X\K	.	.	.
4D\	.	.	8d/L	.	8dd\L	.	.	.	.	8dd\	.	.	.
.	.	.	8e/J	.	8ee\J	.	.	.	.	8ee\J	.	.	.
8r	.	.	8f/L	.	8ff\L	.	.	.	.	8ff\	-cit	.	.
8F\	6	.	16e/L	.	16ee\L	.	.	.	.	16ee\LL	po-	.	.
.	.	.	16d/JJ	.	16dd\JJ	.	.	.	.	16dd\JJ	.	.	.
=10	=10	=10	=10	=10	=10	=10	=10	=10	=10	=10	=10	=10	=10
4G\	4#r 2	.	8c#X/L	.	8cc#X\L	.	2.ryy	2.ryy	2.ryy	8cc#X\	-ten-	2.ryy	2.ryy
.	.	.	16c#/L	.	16cc#\L	.	.	.	.	16cc#\LL	-ti-	.	.
.	.	.	16A/JJ	.	16a\JJ	.	.	.	.	16a\JJ	.	.	.
4F\	6	.	8d/L	.	8dd\L	.	.	.	.	8dd\	-am	.	.
*	*	*	*	*	*	*	*	*	*	*	*ij	*	*
!	!	!	!	!	!	!	!	!	!	!	!LO:MO:mod=fe-	!	!
.	.	.	8e/J	.	8ee\J	.	.	.	.	8ee\	Fe-	.	.
8r	.	.	8f/L	.	8ff\L	.	.	.	.	8ff\	-cit	.	.
8F\	6	.	16e/L	.	16ee\L	.	.	.	.	16ee\LL	po-	.	.
.	.	.	16d/JJ	.	16dd\JJ	.	.	.	.	16dd\JJ	.	.	.
!	!	!	!LO:LB:g=original	!	!LO:LB:g=original	!	!	!	!	!	!	!	!
=11	=11	=11	=11	=11	=11	=11	=11	=11	=11	=11	=11	=11	=11
4G\	4#r 2	.	8c#X/L	.	8cc#X\L	.	2.ryy	2.ryy	2.ryy	8cc#X\	-ten-	2.ryy	2.ryy
.	.	.	16c#/L	.	16cc#\L	.	.	.	.	16cc#\LL	-ti-	.	.
.	.	.	16A/JJ	.	16a\JJ	.	.	.	.	16a\JJ	.	.	.
8F\L	6	.	8d/L	.	8dd\L	.	.	.	.	8dd\	-am	.	.
*	*	*	*	*	*	*	*	*	*	*	*Xij	*	*
!	!	!	!	!	!	!	!	!	!	!LO:LB:g=original	!	!	!
=-	=-	=-	=-	=-	=-	=-	=-	=-	=-	=-	=-	=-	=-
!	!	!	!	!	!	!	!	!	!	!LO:SIC:s=8cc#	!	!	!
8E\	6\	.	8c#/J	.	8cc#\J	.	.	.	.	8cc#X\	in	.	.
!	!	!	!	!	!	!	!	!	!	!	!LO:MO:mod=brac-	!	!
8F\	6	.	8d/L	.	8dd\L	.	.	.	.	8dd\L	bra-	.	.
8D\J	.	.	16e/L	.	16ee\L	.	.	.	.	16ee\L	.	.	.
.	.	.	16f/JJ	.	16ff\JJ	.	.	.	.	16ff\JJ	.	.	.
=12	=12	=12	=12	=12	=12	=12	=12	=12	=12	=12	=12	=12	=12
4G\	6	.	8e/L	.	8ee\L	.	2.ryy	2.ryy	2.ryy	8ee\	-chi-	2.ryy	2.ryy
.	.	.	16e/L	.	16ee\L	.	.	.	.	16ee\LL	-o	.	.
.	.	.	16d/JJ	.	16dd\JJ	.	.	.	.	16dd\JJ	.	.	.
!	!	!	!	!	!	!	!	!	!	!	!LO:MO:mod=su-	!	!
8A\L	#_	.	4c#X/	.	4cc#X\	.	.	.	.	4cc#X\	Su-	.	.
8E\J	.	.	.	.	.	.	.	.	.	.	.	.	.
8C#X/L	.	.	4A/	.	4a/	.	.	.	.	4a\	-o	.	.
8AA/J	x	.	.	.	.	.	.	.	.	.	.	.	.
=13	=13	=13	=13	=13	=13	=13	=13	=13	=13	=13	=13	=13	=13
4D\	7 3	.	4f/	.	8dd\L	.	2.ryy	2.ryy	2.ryy	8dd\L	dis-	2.ryy	2.ryy
.	.	.	.	.	8ff\	.	.	.	.	8ff\J	.	.	.
4E\	6\ 3	.	4g/	.	8dd\	.	.	.	.	8dd\L	-per-	.	.
.	.	.	.	.	8cc#X\	.	.	.	.	8cc#X\J	.	.	.
4F#X\	6 3	.	4a/	.	8dd\	.	.	.	.	8dd\	-sit	.	.
.	.	.	.	.	8a\J	.	.	.	.	8a\	su-	.	.
=14	=14	=14	=14	=14	=14	=14	=14	=14	=14	=14	=14	=14	=14
4G\	.	.	4d/	.	8b-\L	.	2.ryy	2.ryy	2.ryy	8b-\	-per-	2.ryy	2.ryy
.	.	.	.	.	16cc\L	.	.	.	.	16cc\LL	-bos	.	.
.	.	.	.	.	16dd\JJ	.	.	.	.	16dd\JJ	.	.	.
4B-\	6	.	4d/	.	4g/	.	.	.	.	4g\	men-	.	.
4G\	.	.	4d/	.	8a/L	.	.	.	.	8a\L	-te	.	.
.	.	.	.	.	8b-/J	.	.	.	.	8b-\J	.	.	.
!	!	!	!	!	!	!	!	!	!	!LO:LB:g=original	!	!	!
=15	=15	=15	=15	=15	=15	=15	=15	=15	=15	=15	=15	=15	=15
4Cn/	7 3	.	4e/	.	8ccn\L	.	2.ryy	2.ryy	2.ryy	8cc\L	cor-	2.ryy	2.ryy
.	.	.	.	.	8ee\	.	.	.	.	8ee\	.	.	.
4D\	6\ 3	.	4f/	.	8cc\	.	.	.	.	8cc\	.	.	.
.	.	.	.	.	8bn\	.	.	.	.	8bn\J	.	.	.
4E\	6 3	.	4g/	.	8cc\	.	.	.	.	8cc\L	-dis	.	.
.	.	.	.	.	8g\J	.	.	.	.	8g\J	.	.	.
=16	=16	=16	=16	=16	=16	=16	=16	=16	=16	=16	=16	=16	=16
4F\	.	.	4c/	.	8a\L	.	2.ryy	2.ryy	2.ryy	8a\L	su-	2.ryy	2.ryy
.	.	.	.	.	16b-\L	.	.	.	.	16b-\L	.	.	.
.	.	.	.	.	16cc\JJ	.	.	.	.	16cc\JJ	.	.	.
4A\	6	.	4c/	.	4f/	.	.	.	.	4f/	-i	.	.
!	!	!	!	!	!LO:SIC:v:s=8a/L	!	!	!	!	!	!	!	!
4F\	.	.	4c/	.	8g/L	.	.	.	.	8a\L	de-	.	.
!	!	!	!	!	!LO:SIC:v:s=8cc/J	!	!	!	!	!	!	!	!
.	.	.	.	.	8a/J	.	.	.	.	8cc\J	.	.	.
!LO:LB:g=original	!	!	!	!	!LO:LB:g=original	!	!	!	!	!	!	!	!
=17	=17	=17	=17	=17	=17	=17	=17	=17	=17	=17	=17	=17	=17
4E\	6 5	.	4c/	.	8b-/L	.	2.ryy	2.ryy	2.ryy	8b-\	-poſ-	2.ryy	2.ryy
.	.	.	.	.	16b-/L	.	.	.	.	16b-\LL	-su-	.	.
.	.	.	.	.	16a/JJ	.	.	.	.	16a\JJ	.	.	.
4E\	_ _	.	4c/	.	8g/L	.	.	.	.	8g\L	-it	.	.
.	.	.	.	.	8a/	.	.	.	.	8a\J	.	.	.
4E\	x x	.	4c/	.	8b-/	.	.	.	.	8b-\L	po-	.	.
.	.	.	.	.	8cc/J	.	.	.	.	8cc\J	.	.	.
=18	=18	=18	=18	=18	=18	=18	=18	=18	=18	=18	=18	=18	=18
4F\	.	.	4c/	.	8a/L	.	2.ryy	2.ryy	2.ryy	8a\L	-ten-	2.ryy	2.ryy
.	.	.	.	.	16a/L	.	.	.	.	16a\L	.	.	.
.	.	.	.	.	16g/JJ	.	.	.	.	16g\JJ	.	.	.
4A\	.	.	4c/	.	4f/	.	.	.	.	4f/	-tes	.	.
4F\	.	.	4c/	.	8a/L	.	.	.	.	8a\L	po-	.	.
.	.	.	.	.	8cc/J	.	.	.	.	8cc\J	.	.	.
=19	=19	=19	=19	=19	=19	=19	=19	=19	=19	=19	=19	=19	=19
4E\	6 5	.	4c/	.	8b-/L	.	2.ryy	2.ryy	2.ryy	8b-\	.	2.ryy	2.ryy
.	.	.	.	.	16b-/L	.	.	.	.	16b-\LL	-ten-	.	.
.	.	.	.	.	16a/JJ	.	.	.	.	16a\JJ	.	.	.
!	!	!	!	!	!	!	!	!	!	!LO:LB:g=original	!	!	!
=-	=-	=-	=-	=-	=-	=-	=-	=-	=-	=-	=-	=-	=-
4E\	.	.	4c/	.	8g/L	.	.	.	.	8g\L	-tes	.	.
.	.	.	.	.	8a/	.	.	.	.	8a\J	.	.	.
4E\	.	.	4c/	.	8b-/	.	.	.	.	8b-\L	de	.	.
.	.	.	.	.	8cc/J	.	.	.	.	8cc\J	.	.	.
!	!	!	!LO:LB:g=original	!	!	!	!	!	!	!	!	!	!
=20	=20	=20	=20	=20	=20	=20	=20	=20	=20	=20	=20	=20	=20
4F\	.	.	4c/	.	8a/L	.	2.ryy	2.ryy	2.ryy	8a\L	se-	2.ryy	2.ryy
.	.	.	.	.	16a/L	.	.	.	.	16a\L	.	.	.
.	.	.	.	.	16g/JJ	.	.	.	.	16g\JJ	.	.	.
8A\L	6_	.	4c/	.	4f/	.	.	.	.	4f/	.	.	.
8c\	x	.	.	.	.	.	.	.	.	.	.	.	.
8A\	.	.	4A/	.	4cc\	.	.	.	.	4cc\	-de	.	.
8F\J	.	.	.	.	.	.	.	.	.	.	.	.	.
=21	=21	=21	=21	=21	=21	=21	=21	=21	=21	=21	=21	=21	=21
4E\	6 5	.	4c/	.	16g/LL	.	2.ryy	2.ryy	2.ryy	16g\LL	et	2.ryy	2.ryy
.	.	.	.	.	16a/	.	.	.	.	16a\	.	.	.
.	.	.	.	.	16b-/	.	.	.	.	16b-\	.	.	.
.	.	.	.	.	16cc/JJ	.	.	.	.	16cc\JJ	.	.	.
!	!	!	!	!	!	!	!	!	!	!	!LO:MO:mod=e-	!	!
4E\	.	.	4c/	.	8b-/L	.	.	.	.	8b-\L	ex-	.	.
.	.	.	.	.	8g/	.	.	.	.	8g\J	.	.	.
!	!	!	!	!	!	!	!	!	!	!	!LO:MO:mod=-xal-	!	!
4F\	.	.	4c/	.	8a/	.	.	.	.	8a\L	-al-	.	.
.	.	.	.	.	8f/J	.	.	.	.	8f\J	.	.	.
=22	=22	=22	=22	=22	=22	=22	=22	=22	=22	=22	=22	=22	=22
4c\	3_	.	4c/	.	8e/L	.	2.ryy	2.ryy	2.ryy	8e/L	-ta-	2.ryy	2.ryy
.	.	.	.	.	8f/	.	.	.	.	8f/	.	.	.
4B-\	x	.	4c/	.	8g/	.	.	.	.	8g/	.	.	.
.	.	.	.	.	8e/J	.	.	.	.	8e/J	.	.	.
4A\	6	.	4c/	.	8f/L	.	.	.	.	8f/L	-vit	.	.
.	.	.	.	.	8a/J	.	.	.	.	8a/J	.	.	.
!	!	!	!	!	!LO:LB:g=original	!	!	!	!	!	!	!	!
=23	=23	=23	=23	=23	=23	=23	=23	=23	=23	=23	=23	=23	=23
4B-\	6	.	8d/L	.	8dd\L	.	2.ryy	2.ryy	2.ryy	8dd\L	hu-	2.ryy	2.ryy
.	.	.	8b-/J	.	16cc\L	.	.	.	.	16cc\L	.	.	.
.	.	.	.	.	16b-\JJ	.	.	.	.	16b-\JJ	.	.	.
4c\	4	.	4a/	.	4a/	.	.	.	.	4a\	.	.	.
!	!	!	!	!	!	!	!	!	!	!LO:SIC:v:s=4g\	!	!	!
4C/	3	.	4g/	.	4g/	.	.	.	.	4f\	-mi-	.	.
!	!	!	!	!	!	!	!	!	!	!LO:LB:g=original	!	!	!
=24	=24	=24	=24	=24	=24	=24	=24	=24	=24	=24	=24	=24	=24
*2\right	*	*	*	*	*	*	*	*	*	*	*	*	*
[<2.F\	.	.	2.f/ 2.a	.	8a\L	.	2.ryy	2.ryy	2.ryy	8a\L	-le-	2.ryy	2.ryy
.	.	.	.	.	16ff\L	.	.	.	.	16ff\L	.	.	.
.	.	.	.	.	16ee\JJ	.	.	.	.	16ee\JJ	.	.	.
.	.	.	.	.	8ff\L	.	.	.	.	8ff\L	.	.	.
.	.	.	.	.	8cc\	.	.	.	.	8cc\	.	.	.
.	.	.	.	.	8ff\	.	.	.	.	8ff\	.	.	.
.	.	.	.	.	8aa\J	.	.	.	.	8aa\J	.	.	.
=25	=25	=25	=25	=25	=25	=25	=25	=25	=25	=25	=25	=25	=25
2.F\_<	.	.	2.f/ 2.a	.	16ff\LL	.	2.ryy	2.ryy	2.ryy	16ff\LL	.	2.ryy	2.ryy
.	.	.	.	.	16ee\	.	.	.	.	16ee\	.	.	.
.	.	.	.	.	16dd\	.	.	.	.	16dd\	.	.	.
.	.	.	.	.	16cc\JJ	.	.	.	.	16cc\JJ	.	.	.
.	.	.	.	.	8ff\L	.	.	.	.	8ff\L	.	.	.
.	.	.	.	.	16gg\L	.	.	.	.	16gg\L	.	.	.
.	.	.	.	.	16aa\JJ	.	.	.	.	16aa\JJ	.	.	.
.	.	.	.	.	8ff\L	.	.	.	.	8ff\L	.	.	.
.	.	.	.	.	8cc\J	.	.	.	.	8cc\J	.	.	.
=26	=26	=26	=26	=26	=26	=26	=26	=26	=26	=26	=26	=26	=26
2.F\_<	.	.	2.f/ 2.a	.	8ff\L	.	2.ryy	2.ryy	2.ryy	8ff\L	.	2.ryy	2.ryy
.	.	.	.	.	16ff\L	.	.	.	.	16ff\L	.	.	.
.	.	.	.	.	16ee\JJ	.	.	.	.	16ee\JJ	.	.	.
.	.	.	.	.	8ff\L	.	.	.	.	8ff\L	.	.	.
.	.	.	.	.	8cc\	.	.	.	.	8cc\	.	.	.
.	.	.	.	.	8ff\	.	.	.	.	8ff\	.	.	.
.	.	.	.	.	8aa\J	.	.	.	.	8aa\J	.	.	.
=27	=27	=27	=27	=27	=27	=27	=27	=27	=27	=27	=27	=27	=27
2.F\]	.	.	2.f/ 2.a	.	16ff\LL	.	2.ryy	2.ryy	2.ryy	16ff\LL	.	2.ryy	2.ryy
.	.	.	.	.	16ee\	.	.	.	.	16ee\	.	.	.
.	.	.	.	.	16dd\	.	.	.	.	16dd\	.	.	.
.	.	.	.	.	16cc\JJ	.	.	.	.	16cc\JJ	.	.	.
.	.	.	.	.	8ff\L	.	.	.	.	8ff\	.	.	.
.	.	.	.	.	16gg\L	.	.	.	.	16gg\LL	.	.	.
.	.	.	.	.	16aa\JJ	.	.	.	.	16aa\JJ	.	.	.
.	.	.	.	.	4ff\	.	.	.	.	4ff\	-s	.	.
!LO:LB:g=original	!	!	!	!	!	!	!	!	!	!LO:LB:g=original	!	!	!
=28	=28	=28	=28	=28	=28	=28	=28	=28	=28	=28	=28	=28	=28
!	!	!	!	!LO:MO:null:mod=!LO&colon;DY&colon;ed=brack	!	!	!	!	!	!	!	!	!
!	!	!	!	!	!	!	!	!	!	!	!	!	!
!	!	!LO:DY:a:t=f.	!	!LO:MO:null:mod=f	!	!LO:DY:a:t=for.	!	!	!	!	!	!	!
4F\	.	f	8f/L	.	8ff\L	f	2.ryy	2.ryy	2.ryy	0.r	.	2.ryy	2.ryy
.	.	.	16f/L	.	16ff\L	.	.	.	.	.	.	.	.
.	.	.	16e/JJ	.	16ee\JJ	.	.	.	.	.	.	.	.
4c\	4	.	8f/L	.	8ff\L	.	.	.	.	.	.	.	.
.	.	.	8a/	.	8aa\	.	.	.	.	.	.	.	.
4C/	3	.	8g/	.	8gg\	.	.	.	.	.	.	.	.
.	.	.	8e/J	.	8ee\J	.	.	.	.	.	.	.	.
!	!	!	!	!	!LO:LB:g=original	!	!	!	!	!	!	!	!
=29	=29	=29	=29	=29	=29	=29	=29	=29	=29	=29	=29	=29	=29
4F\	.	.	8f/L	.	8ff\L	.	2.ryy	2.ryy	2.ryy	.	.	2.ryy	2.ryy
.	.	.	16g/L	.	16gg\L	.	.	.	.	.	.	.	.
.	.	.	16a/JJ	.	16aa\JJ	.	.	.	.	.	.	.	.
4A\	6	.	8f/L	.	8ff\L	.	.	.	.	.	.	.	.
.	.	.	8c/	.	8cc\	.	.	.	.	.	.	.	.
4G\	56	.	8d/	.	8dd\	.	.	.	.	.	.	.	.
.	.	.	8e/J	.	8ee\J	.	.	.	.	.	.	.	.
!	!	!	!LO:LB:g=original	!	!	!	!	!	!	!	!	!	!
=30	=30	=30	=30	=30	=30	=30	=30	=30	=30	=30	=30	=30	=30
4F\	.	.	8f/L	.	8ff\L	.	2.ryy	2.ryy	2.ryy	.	.	2.ryy	2.ryy
.	.	.	16f/L	.	16ff\L	.	.	.	.	.	.	.	.
.	.	.	16e/JJ	.	16ee\JJ	.	.	.	.	.	.	.	.
4c\	4	.	8f/L	.	8ff\L	.	.	.	.	.	.	.	.
.	.	.	8a/	.	8aa\	.	.	.	.	.	.	.	.
4C/	3	.	8g/	.	8gg\	.	.	.	.	.	.	.	.
.	.	.	8e/J	.	8ee\J	.	.	.	.	.	.	.	.
=31	=31	=31	=31	=31	=31	=31	=31	=31	=31	=31	=31	=31	=31
4F\	.	.	8f/L	.	8ff\L	.	2.ryy	2.ryy	2.ryy	.	.	2.ryy	2.ryy
.	.	.	16g/L	.	16gg\L	.	.	.	.	.	.	.	.
.	.	.	16a/JJ	.	16aa\JJ	.	.	.	.	.	.	.	.
4A\	6_	.	4c/	.	4cc\	.	.	.	.	.	.	.	.
4A\	x	.	8c/L	.	8cc\L	.	.	.	.	.	.	.	.
.	.	.	8f/J	.	8ff\J	.	.	.	.	.	.	.	.
=32	=32	=32	=32	=32	=32	=32	=32	=32	=32	=32	=32	=32	=32
4B-\	6	.	8d/L	.	8dd\L	.	2.ryy	2.ryy	2.ryy	0.r	.	2.ryy	2.ryy
.	.	.	16d/L	.	16dd\L	.	.	.	.	.	.	.	.
.	.	.	16c/JJ	.	16cc\JJ	.	.	.	.	.	.	.	.
4B-\	_	.	8d/L	.	8dd\L	.	.	.	.	.	.	.	.
.	.	.	8g/	.	8gg\	.	.	.	.	.	.	.	.
4c\	3	.	8e/	.	8ee\	.	.	.	.	.	.	.	.
.	.	.	8c/J	.	8cc\J	.	.	.	.	.	.	.	.
=33	=33	=33	=33	=33	=33	=33	=33	=33	=33	=33	=33	=33	=33
4F\	.	.	8f/L	.	8ff\L	.	2.ryy	2.ryy	2.ryy	.	.	2.ryy	2.ryy
.	.	.	16g/L	.	16gg\L	.	.	.	.	.	.	.	.
.	.	.	16a/JJ	.	16aa\JJ	.	.	.	.	.	.	.	.
4G\	76	.	8f/L	.	8ff\L	.	.	.	.	.	.	.	.
.	.	.	8e/	.	8ee\	.	.	.	.	.	.	.	.
4A\	6	.	8f/	.	8ff\	.	.	.	.	.	.	.	.
.	.	.	8c/J	.	8cc\J	.	.	.	.	.	.	.	.
=34	=34	=34	=34	=34	=34	=34	=34	=34	=34	=34	=34	=34	=34
4B-\	6	.	8d/L	.	8dd\L	.	2.ryy	2.ryy	2.ryy	.	.	2.ryy	2.ryy
.	.	.	16d/L	.	16dd\L	.	.	.	.	.	.	.	.
.	.	.	16c/JJ	.	16cc\JJ	.	.	.	.	.	.	.	.
4B-\	_	.	8d/L	.	8dd\L	.	.	.	.	.	.	.	.
.	.	.	8g/	.	8gg\	.	.	.	.	.	.	.	.
4c\	3	.	8e/	.	8ee\	.	.	.	.	.	.	.	.
.	.	.	8c/J	.	8cc\J	.	.	.	.	.	.	.	.
!	!	!	!	!	!LO:LB:g=original	!	!	!	!	!	!	!	!
=35	=35	=35	=35	=35	=35	=35	=35	=35	=35	=35	=35	=35	=35
4F\	.	.	8f/L	.	8ff\L	.	2.ryy	2.ryy	2.ryy	.	.	2.ryy	2.ryy
.	.	.	16g/L	.	16gg\L	.	.	.	.	.	.	.	.
.	.	.	16a/JJ	.	16aa\JJ	.	.	.	.	.	.	.	.
4FF/	.	.	4f/	.	4ff\	.	.	.	.	.	.	.	.
4F\	.	.	4f/	.	4ff\	.	.	.	.	.	.	.	.
=36	=36	=36	=36	=36	=36	=36	=36	=36	=36	=36	=36	=36	=36
!	!	!	!	!LO:MO:null:mod=!LO&colon;DY&colon;ed=brack	!	!	!	!	!	!	!	!	!
!	!	!	!	!	!	!	!	!	!	!	!	!	!
!	!	!LO:DY:a:t=p.	!	!LO:MO:null:mod=p	!	!LO:DY:a:t=p.	!	!	!	!	!	!	!
4F\	.	p	4A/	.	8.cc\L	p	2.ryy	2.ryy	2.ryy	8.cc\L	Sus-	2.ryy	2.ryy
.	.	.	.	.	16b-\Jk	.	.	.	.	16b-\Jk	.	.	.
4F\	.	.	4c/	.	4a\	.	.	.	.	4a\	-ce-	.	.
4F\	.	.	4A/	.	8a\L	.	.	.	.	8a\L	-pit	.	.
.	.	.	.	.	8cc\J	.	.	.	.	8cc\J	.	.	.
!	!	!	!LO:LB:g=original	!	!	!	!	!	!	!	!	!	!
=37	=37	=37	=37	=37	=37	=37	=37	=37	=37	=37	=37	=37	=37
4B-\	6	.	4d/	.	8.dd\L	.	2.ryy	2.ryy	2.ryy	8.dd\L	Is-	2.ryy	2.ryy
.	.	.	.	.	16cc#X\Jk	.	.	.	.	16cc#X\Jk	.	.	.
4B-\	_	.	4d/	.	8dd\L	.	.	.	.	8dd\	.	.	.
.	.	.	.	.	8b-\J	.	.	.	.	8b-\	-ra-	.	.
4B-\	x	.	4d/	.	4g/	.	.	.	.	4g\	-el	.	.
!LO:LB:g=original	!	!	!	!	!	!	!	!	!	!	!	!	!
=38	=38	=38	=38	=38	=38	=38	=38	=38	=38	=38	=38	=38	=38
4c\	3_	.	4e/	.	8.b-/L	.	2.ryy	2.ryy	2.ryy	8.b-\L	pu-	2.ryy	2.ryy
.	.	.	.	.	16a/Jk	.	.	.	.	16a\Jk	.	.	.
4c\	x	.	4e/	.	4g/	.	.	.	.	4g\	-e-	.	.
4c\	.	.	4e/	.	8g/L	.	.	.	.	8g\L	-rum	.	.
.	.	.	.	.	8b-/J	.	.	.	.	8b-\J	.	.	.
=39	=39	=39	=39	=39	=39	=39	=39	=39	=39	=39	=39	=39	=39
4F\	.	.	4a/	.	8.cc\L	.	2.ryy	2.ryy	2.ryy	8.cc\L	su-	2.ryy	2.ryy
.	.	.	.	.	16bn\Jk	.	.	.	.	16bn\Jk	.	.	.
4F\	.	.	4c/	.	8cc\L	.	.	.	.	8cc\L	.	.	.
.	.	.	.	.	8a\J	.	.	.	.	8a\J	.	.	.
4F\	.	.	4c/	.	4f/	.	.	.	.	4f/	-um	.	.
!	!	!	!	!	!	!	!	!	!	!LO:LB:g=original	!	!	!
=40	=40	=40	=40	=40	=40	=40	=40	=40	=40	=40	=40	=40	=40
4F\	.	.	4c/	.	8a\L	.	2.ryy	2.ryy	2.ryy	8.a\L	re-	2.ryy	2.ryy
.	.	.	.	.	8b-\	.	.	.	.	.	.	.	.
.	.	.	.	.	.	.	.	.	.	16b-\Jk	.	.	.
4F\	.	.	4a/	.	8cc\	.	.	.	.	8cc\L	.	.	.
.	.	.	.	.	8a\	.	.	.	.	8a\J	.	.	.
4E\	56\	.	4g/	.	8b-\	.	.	.	.	8b-\L	-cor-	.	.
.	.	.	.	.	8cc#X\J	.	.	.	.	8cc#X\J	.	.	.
!	!	!	!	!	!LO:LB:g=original	!	!	!	!	!	!	!	!
=41	=41	=41	=41	=41	=41	=41	=41	=41	=41	=41	=41	=41	=41
4D\	.	.	4f/	.	8dd\L	.	2.ryy	2.ryy	2.ryy	8dd\L	-da-	2.ryy	2.ryy
.	.	.	.	.	8cc#X\	.	.	.	.	8cc#X\J	.	.	.
4D\	.	.	4f/	.	8dd\	.	.	.	.	8dd\L	.	.	.
.	.	.	.	.	8ff\J	.	.	.	.	8ff\J	.	.	.
4C#X/	6	.	4e/	.	4a/	.	.	.	.	4a\	-tus	.	.
=42	=42	=42	=42	=42	=42	=42	=42	=42	=42	=42	=42	=42	=42
4BB-/	6\ 3	.	4d/	.	8.dd\L	.	2.ryy	2.ryy	2.ryy	8dd\L	mi-	2.ryy	2.ryy
.	.	.	.	.	.	.	.	.	.	8cc#X\J	.	.	.
.	.	.	.	.	16cc#X\Jk	.	.	.	.	.	.	.	.
4BB-/	_ _	.	4d/	.	4dd\	.	.	.	.	4dd\	-se-	.	.
4BB-/	x x	.	4d/	.	8b-/L	.	.	.	.	8b-\L	-ri-	.	.
.	.	.	.	.	8g#X/J	.	.	.	.	8g#X\J	.	.	.
=43	=43	=43	=43	=43	=43	=43	=43	=43	=43	=43	=43	=43	=43
4AA/	#	.	4c#X/	.	8a\L	.	2.ryy	2.ryy	2.ryy	8a\L	-cor-	2.ryy	2.ryy
.	.	.	.	.	16b-\L	.	.	.	.	16b-\L	.	.	.
.	.	.	.	.	16cc#X\JJ	.	.	.	.	16cc#X\JJ	.	.	.
4AA/	_	.	4c#/	.	8a\L	.	.	.	.	8a\L	.	.	.
.	.	.	.	.	16b-\L	.	.	.	.	16b-\L	.	.	.
.	.	.	.	.	16cc#\JJ	.	.	.	.	16cc#\JJ	.	.	.
4AA/	x	.	4c#/	.	4ee\	.	.	.	.	4ee\	.	.	.
=44	=44	=44	=44	=44	=44	=44	=44	=44	=44	=44	=44	=44	=44
4BB-/	6\ 3	.	4d/	.	8.dd\L	.	2.ryy	2.ryy	2.ryy	8dd\L	.	2.ryy	2.ryy
.	.	.	.	.	.	.	.	.	.	8cc#X\J	.	.	.
.	.	.	.	.	16cc#X\Jk	.	.	.	.	.	.	.	.
!	!	!	!	!	!	!	!	!	!	!LO:LB:g=original	!	!	!
=-	=-	=-	=-	=-	=-	=-	=-	=-	=-	=-	=-	=-	=-
4BB-/	_ _	.	4d/	.	4dd\	.	.	.	.	4dd\	-di-	.	.
4BB-/	x x	.	4d/	.	8b-/L	.	.	.	.	8b-\L	-ae	.	.
.	.	.	.	.	8g#X/J	.	.	.	.	8g#X\J	.	.	.
=45	=45	=45	=45	=45	=45	=45	=45	=45	=45	=45	=45	=45	=45
4AA/	#_	.	4c#X/	.	8a/L	.	2.ryy	2.ryy	2.ryy	8a\L	su-	2.ryy	2.ryy
.	.	.	.	.	16b-/L	.	.	.	.	16b-\L	.	.	.
.	.	.	.	.	16cc#X/JJ	.	.	.	.	16cc#X\JJ	.	.	.
*	*	*	*	*	*	*	*	*	*	*2\right	*	*	*
4AA/	.	.	4c#/	.	4a/	.	.	.	.	2a\	-ae	.	.
4AA/	x	.	4c#/	.	4a/	.	.	.	.	.	.	.	.
=46	=46	=46	=46	=46	=46	=46	=46	=46	=46	=46	=46	=46	=46
4D\	.	.	8.d/L	.	8.dd\L	.	2.ryy	2.ryy	2.ryy	8.dd\L	Si-	2.ryy	2.ryy
.	.	.	16c#X/Jk	.	16cc#X\Jk	.	.	.	.	16cc#X\K	.	.	.
4D\	.	.	8d/L	.	8dd\L	.	.	.	.	8dd\	.	.	.
.	.	.	8e/J	.	8ee\J	.	.	.	.	8ee\J	.	.	.
8r	.	.	8f/L	.	8ff\L	.	.	.	.	8ff\	-cut	.	.
8F\	6	.	16e/L	.	16ee\L	.	.	.	.	16ee\LL	lo-	.	.
.	.	.	16d/JJ	.	16dd\JJ	.	.	.	.	16dd\JJ	.	.	.
!LO:LB:g=original	!	!	!LO:LB:g=original	!	!LO:LB:g=original	!	!	!	!	!	!	!	!
=47	=47	=47	=47	=47	=47	=47	=47	=47	=47	=47	=47	=47	=47
4G\	4#r 2	.	8c#X/L	.	8cc#X\L	.	2.ryy	2.ryy	2.ryy	8cc#X\	-cu-	2.ryy	2.ryy
.	.	.	16c#/L	.	16cc#\L	.	.	.	.	16cc#\LL	-tus	.	.
.	.	.	16A/JJ	.	16a\JJ	.	.	.	.	16a\JJ	.	.	.
4F\	6	.	8d/L	.	8dd\L	.	.	.	.	8dd\	est	.	.
.	.	.	8e/J	.	8ee\J	.	.	.	.	8ee\	ad	.	.
!	!	!	!	!	!	!	!	!	!	!	!LO:MO:mod=Pat-	!	!
8r	.	.	8f/L	.	8ff\L	.	.	.	.	8ff\	pa-	.	.
!	!	!	!	!	!	!	!	!	!	!	!LO:MO:mod=-res	!	!
8F\	6	.	16e/L	.	16ee\L	.	.	.	.	16ee\LL	-tres	.	.
.	.	.	16d/JJ	.	16dd\JJ	.	.	.	.	16dd\JJ	.	.	.
!	!	!	!	!	!	!	!	!	!	!LO:LB:g=original	!	!	!
=48	=48	=48	=48	=48	=48	=48	=48	=48	=48	=48	=48	=48	=48
!	!	!	!	!	!	!	!	!	!	!	!LO:MO:mod=nos-	!	!
4G\	4#r 2	.	8c#X/L	.	8cc#X\L	.	2.ryy	2.ryy	2.ryy	8cc#X\L	no-	2.ryy	2.ryy
.	.	.	16c#/L	.	16cc#\L	.	.	.	.	16b-\L	.	.	.
.	.	.	16A/JJ	.	16a\JJ	.	.	.	.	16a\JJ	.	.	.
!	!	!	!	!	!	!	!	!	!	!	!LO:MO:mod=-tros	!	!
8F\L	6	.	8d/L	.	8dd\L	.	.	.	.	8dd\	-stros	.	.
8E\	6\	.	8c#/J	.	8cc#\J	.	.	.	.	8cc#\	ad	.	.
!	!	!	!	!	!	!	!	!	!	!	!LO:MO:mod=Pat-	!	!
8F\	6	.	8d/L	.	8dd\L	.	.	.	.	8dd\L	pat-	.	.
8D\J	.	.	16e/L	.	16ee\L	.	.	.	.	16ee\L	.	.	.
.	.	.	16f/JJ	.	16ff\JJ	.	.	.	.	16ff\JJ	.	.	.
=49	=49	=49	=49	=49	=49	=49	=49	=49	=49	=49	=49	=49	=49
4G\	6	.	8e/L	.	8ee\L	.	2.ryy	2.ryy	2.ryy	8ee\	.	2.ryy	2.ryy
.	.	.	16e/L	.	16ee\L	.	.	.	.	16ee\LL	-res	.	.
.	.	.	16d/JJ	.	16dd\JJ	.	.	.	.	16dd\JJ	.	.	.
!	!	!	!	!	!	!	!	!	!	!	!LO:MO:mod=nos-	!	!
8A\L	#_	.	4c#X/	.	4cc#X\	.	.	.	.	4cc#X\	no-	.	.
8E\J	.	.	.	.	.	.	.	.	.	.	.	.	.
!	!	!	!	!	!	!	!	!	!	!	!LO:MO:mod=-tros	!	!
8C#X/L	.	.	4A/	.	4a/	.	.	.	.	4a\	-stros	.	.
8AA/J	x	.	.	.	.	.	.	.	.	.	.	.	.
=50	=50	=50	=50	=50	=50	=50	=50	=50	=50	=50	=50	=50	=50
*	*	*	*^	*	*	*	*	*	*	*	*	*	*
4C#X/	6 5	.	4a/	4e\	.	8gg\L	.	2.ryy	2.ryy	2.ryy	8gg\	A-	2.ryy	2.ryy
.	.	.	.	.	.	16gg\L	.	.	.	.	16gg\LL	-bra-	.	.
.	.	.	.	.	.	16ff\JJ	.	.	.	.	16ff\JJ	.	.	.
4C#/	_ _	.	4a/	4e\	.	8ee\L	.	.	.	.	8ee\L	-ham	.	.
.	.	.	.	.	.	8ff\	.	.	.	.	8ff\J	.	.	.
4C#/	x x	.	4a/	4e\	.	8gg\	.	.	.	.	8gg\L	et	.	.
.	.	.	.	.	.	8aa\J	.	.	.	.	8aa\J	.	.	.
=51	=51	=51	=51	=51	=51	=51	=51	=51	=51	=51	=51	=51	=51	=51
4D\	.	.	4a/	4f\	.	8ff\L	.	2.ryy	2.ryy	2.ryy	8ff\	se-	2.ryy	2.ryy
.	.	.	.	.	.	16ff\L	.	.	.	.	16ff\LL	-mi-	.	.
.	.	.	.	.	.	16ee\JJ	.	.	.	.	16ee\JJ	.	.	.
4D\	.	.	4a/	4f\	.	4dd\	.	.	.	.	4dd\	-ni	.	.
!	!	!	!	!	!	!	!	!	!	!	!LO:LB:g=original	!	!	!
=-	=-	=-	=-	=-	=-	=-	=-	=-	=-	=-	=-	=-	=-	=-
4D\	.	.	4a/	4f\	.	8ff\L	.	.	.	.	8ff\L	A-	.	.
.	.	.	.	.	.	8aa\J	.	.	.	.	8aa\J	.	.	.
=52	=52	=52	=52	=52	=52	=52	=52	=52	=52	=52	=52	=52	=52	=52
4C#X/	6 5	.	4a/	4e\	.	8gg\L	.	2.ryy	2.ryy	2.ryy	8gg\	.	2.ryy	2.ryy
.	.	.	.	.	.	16gg\L	.	.	.	.	16gg\LL	-bra-	.	.
.	.	.	.	.	.	16ff\JJ	.	.	.	.	16ff\JJ	.	.	.
!	!	!	!	!	!	!LO:LB:g=original	!	!	!	!	!	!	!	!
=-	=-	=-	=-	=-	=-	=-	=-	=-	=-	=-	=-	=-	=-	=-
4C#/	_ _	.	4a/	4e\	.	8ee\L	.	.	.	.	8ee\	-ham	.	.
.	.	.	.	.	.	8ff\	.	.	.	.	8ff\	et	.	.
4C#/	x x	.	4a/	4e\	.	8gg\	.	.	.	.	8gg\L	se-	.	.
.	.	.	.	.	.	8aa\J	.	.	.	.	8aa\J	.	.	.
=53	=53	=53	=53	=53	=53	=53	=53	=53	=53	=53	=53	=53	=53	=53
4D\	.	.	4a/	4f\	.	8ff\L	.	2.ryy	2.ryy	2.ryy	8ff\	-mi-	2.ryy	2.ryy
.	.	.	.	.	.	16ff\L	.	.	.	.	16ff\LL	-ni	.	.
.	.	.	.	.	.	16ee\JJ	.	.	.	.	16ee\JJ	.	.	.
4D\	.	.	4a/	4f\	.	4dd\	.	.	.	.	4dd\	e-	.	.
4D\	.	.	4a/	4f\	.	4a/	.	.	.	.	4a\	-ius	.	.
!	!	!	!LO:LB:g=original	!LO:LB:g=original	!	!	!	!	!	!	!	!	!	!
=54	=54	=54	=54	=54	=54	=54	=54	=54	=54	=54	=54	=54	=54	=54
4C#X/	6 5	.	4a/	4e\	.	16ee\LL	.	2.ryy	2.ryy	2.ryy	16ee\LL	et	2.ryy	2.ryy
.	.	.	.	.	.	16ff\	.	.	.	.	16ff\	.	.	.
.	.	.	.	.	.	16gg\	.	.	.	.	16gg\	.	.	.
.	.	.	.	.	.	16aa\JJ	.	.	.	.	16aa\JJ	.	.	.
4C#/	.	.	4a/	4e\	.	8gg\L	.	.	.	.	8gg\L	se-	.	.
.	.	.	.	.	.	8ee\	.	.	.	.	8ee\J	.	.	.
4D\	.	.	4a/	4f\	.	8ff\	.	.	.	.	8ff\	-mi-	.	.
.	.	.	.	.	.	8dd\J	.	.	.	.	8dd\	-ni	.	.
!LO:LB:g=original	!	!	!	!	!	!	!	!	!	!	!LO:PB:g=original	!	!	!
=55	=55	=55	=55	=55	=55	=55	=55	=55	=55	=55	=55	=55	=55	=55
4A\	#_	.	4a/	4e\	.	8cc#X\L	.	2.ryy	2.ryy	2.ryy	8cc#X\L	e-	2.ryy	2.ryy
.	.	.	.	.	.	8ee\J	.	.	.	.	8ee\J	.	.	.
4G\	x	.	4a/	4e\	.	8a\L	.	.	.	.	8a\L	.	.	.
.	.	.	.	.	.	16b-\L	.	.	.	.	16b-\L	.	.	.
.	.	.	.	.	.	16cc#\JJ	.	.	.	.	16cc#\JJ	.	.	.
4F\	6	.	4a/	4f\	.	8dd\L	.	.	.	.	8dd\	-ius	.	.
.	.	.	.	.	.	8ff\J	.	.	.	.	8ff\	in	.	.
*	*	*	*v	*v	*	*	*	*	*	*	*	*	*	*
=56	=56	=56	=56	=56	=56	=56	=56	=56	=56	=56	=56	=56	=56
4G\	6	.	8b-/L	.	8gg\L	.	2.ryy	2.ryy	2.ryy	4ee\	sae-	2.ryy	2.ryy
.	.	.	8g/J	.	8ee\J	.	.	.	.	.	.	.	.
4A\	4	.	4f/	.	4dd\	.	.	.	.	4dd\	.	.	.
4AA/	#	.	4e/	.	4cc#X\	.	.	.	.	4cc#X\	-cu-	.	.
=57	=57	=57	=57	=57	=57	=57	=57	=57	=57	=57	=57	=57	=57
[<2.D\	.	.	2.f/ 2.a	.	8dd\L	.	2.ryy	2.ryy	2.ryy	8dd\	-la	2.ryy	2.ryy
.	.	.	.	.	16dd\L	.	.	.	.	16dd\LL	in	.	.
.	.	.	.	.	16cc#X\JJ	.	.	.	.	16cc#X\JJ	.	.	.
.	.	.	.	.	8dd\L	.	.	.	.	8dd\L	sae-	.	.
.	.	.	.	.	8a\	.	.	.	.	8a\	.	.	.
.	.	.	.	.	8dd\	.	.	.	.	8dd\	.	.	.
.	.	.	.	.	8ff\J	.	.	.	.	8ff\J	.	.	.
!	!	!	!	!	!LO:LB:g=original	!	!	!	!	!	!	!	!
=58	=58	=58	=58	=58	=58	=58	=58	=58	=58	=58	=58	=58	=58
2.D\_<	.	.	2.f/ 2.a	.	16dd\LL	.	2.ryy	2.ryy	2.ryy	16dd\LL	.	2.ryy	2.ryy
.	.	.	.	.	16cc#X\	.	.	.	.	16cc#X\	.	.	.
.	.	.	.	.	16b-\	.	.	.	.	16b-\	.	.	.
.	.	.	.	.	16a\JJ	.	.	.	.	16a\JJ	.	.	.
.	.	.	.	.	8dd\L	.	.	.	.	8dd\L	.	.	.
.	.	.	.	.	16ee\L	.	.	.	.	16ee\L	.	.	.
.	.	.	.	.	16ff\JJ	.	.	.	.	16ff\JJ	.	.	.
.	.	.	.	.	8dd\L	.	.	.	.	8dd\L	.	.	.
.	.	.	.	.	8a\J	.	.	.	.	8a\J	.	.	.
!	!	!	!	!	!	!	!	!	!	!LO:LB:g=original	!	!	!
=59	=59	=59	=59	=59	=59	=59	=59	=59	=59	=59	=59	=59	=59
2.D\_<	.	.	2.f/ 2.a	.	8dd\L	.	2.ryy	2.ryy	2.ryy	8dd\L	.	2.ryy	2.ryy
.	.	.	.	.	16dd\L	.	.	.	.	16dd\L	.	.	.
.	.	.	.	.	16cc#X\JJ	.	.	.	.	16cc#X\JJ	.	.	.
.	.	.	.	.	8dd\L	.	.	.	.	8dd\L	.	.	.
.	.	.	.	.	8a\	.	.	.	.	8a\	.	.	.
.	.	.	.	.	8dd\	.	.	.	.	8dd\	.	.	.
.	.	.	.	.	8ff\J	.	.	.	.	8ff\J	.	.	.
=60	=60	=60	=60	=60	=60	=60	=60	=60	=60	=60	=60	=60	=60
2.D\]	.	.	2.f/ 2.a	.	16dd\LL	.	2.ryy	2.ryy	2.ryy	16dd\LL	.	2.ryy	2.ryy
!	!	!	!	!	!	!	!	!	!	!LO:SIC:v:s=16cc#\	!	!	!
.	.	.	.	.	16cc#X\	.	.	.	.	16cc\	.	.	.
.	.	.	.	.	16b-\	.	.	.	.	16b-\	.	.	.
.	.	.	.	.	16a\JJ	.	.	.	.	16a\JJ	.	.	.
.	.	.	.	.	8dd\L	.	.	.	.	8dd\	.	.	.
.	.	.	.	.	16ee\L	.	.	.	.	16ee\LL	-cu-	.	.
.	.	.	.	.	16ff\JJ	.	.	.	.	16ff\JJ	.	.	.
.	.	.	.	.	4dd\	.	.	.	.	4dd\	-la	.	.
=61	=61	=61	=61	=61	=61	=61	=61	=61	=61	=61	=61	=61	=61
!	!	!LO:DY:a:t=f.	!	!LO:DY:a:t=for	!	!LO:DY:a:t=for	!	!	!	!	!	!	!
4D\	.	f	8d/L	f	8dd\L	f	2.ryy	2.ryy	2.ryy	0.r	.	2.ryy	2.ryy
.	.	.	16d/L	.	16dd\L	.	.	.	.	.	.	.	.
.	.	.	16c#X/JJ	.	16cc#X\JJ	.	.	.	.	.	.	.	.
4A\	4	.	8d/L	.	8dd\L	.	.	.	.	.	.	.	.
.	.	.	8f/	.	8ff\	.	.	.	.	.	.	.	.
4AA/	#	.	8e/	.	8ee\	.	.	.	.	.	.	.	.
.	.	.	8c#/J	.	8cc#\J	.	.	.	.	.	.	.	.
=62	=62	=62	=62	=62	=62	=62	=62	=62	=62	=62	=62	=62	=62
4D\	6	.	8d/L	.	8dd\L	.	2.ryy	2.ryy	2.ryy	.	.	2.ryy	2.ryy
.	.	.	16e/L	.	16ee\L	.	.	.	.	.	.	.	.
.	.	.	16f/JJ	.	16ff\JJ	.	.	.	.	.	.	.	.
4F\	.	.	8d/L	.	8dd\L	.	.	.	.	.	.	.	.
.	.	.	8A/	.	8a\	.	.	.	.	.	.	.	.
4E\	56\	.	8B-/	.	8b-\	.	.	.	.	.	.	.	.
.	.	.	8c#X/J	.	8cc#X\J	.	.	.	.	.	.	.	.
!	!	!	!LO:LB:g=original	!	!LO:LB:g=original	!	!	!	!	!	!	!	!
=63	=63	=63	=63	=63	=63	=63	=63	=63	=63	=63	=63	=63	=63
4D\	.	.	8d/L	.	8dd\L	.	2.ryy	2.ryy	2.ryy	.	.	2.ryy	2.ryy
.	.	.	16d/L	.	16dd\L	.	.	.	.	.	.	.	.
.	.	.	16c#X/JJ	.	16cc#X\JJ	.	.	.	.	.	.	.	.
4A\	4	.	8d/L	.	8dd\L	.	.	.	.	.	.	.	.
.	.	.	8f/	.	8ff\	.	.	.	.	.	.	.	.
4AA/	#	.	8e/	.	8ee\	.	.	.	.	.	.	.	.
.	.	.	8c#X/J	.	8cc#\J	.	.	.	.	.	.	.	.
=64	=64	=64	=64	=64	=64	=64	=64	=64	=64	=64	=64	=64	=64
4D\	.	.	8d/L	.	8dd\L	.	2.ryy	2.ryy	2.ryy	.	.	2.ryy	2.ryy
.	.	.	16e/L	.	16ee\L	.	.	.	.	.	.	.	.
.	.	.	16f/JJ	.	16ff\JJ	.	.	.	.	.	.	.	.
4F\	6_	.	4A/	.	4a/	.	.	.	.	.	.	.	.
4F\	_	.	8A/L	.	8a\L	.	.	.	.	.	.	.	.
.	x	.	8d/J	.	8dd\J	.	.	.	.	.	.	.	.
=65	=65	=65	=65	=65	=65	=65	=65	=65	=65	=65	=65	=65	=65
4G\	6	.	8B-/L	.	8b-\L	.	2.ryy	2.ryy	2.ryy	0.r	.	2.ryy	2.ryy
.	.	.	16B-/L	.	16b-\L	.	.	.	.	.	.	.	.
.	.	.	16A/JJ	.	16a\JJ	.	.	.	.	.	.	.	.
4G\	_	.	8B-/L	.	8b-\L	.	.	.	.	.	.	.	.
.	.	.	8e/	.	8ee\	.	.	.	.	.	.	.	.
4A\	#	.	8c#X/	.	8cc#X\	.	.	.	.	.	.	.	.
.	.	.	8A/J	.	8a\J	.	.	.	.	.	.	.	.
!LO:LB:g=original	!	!	!	!	!	!	!	!	!	!	!	!	!
=66	=66	=66	=66	=66	=66	=66	=66	=66	=66	=66	=66	=66	=66
4D\	.	.	8d/L	.	8dd\L	.	2.ryy	2.ryy	2.ryy	.	.	2.ryy	2.ryy
.	.	.	16e/L	.	16ee\L	.	.	.	.	.	.	.	.
.	.	.	16f/JJ	.	16ff\JJ	.	.	.	.	.	.	.	.
4E\	76\	.	8d/L	.	8dd\L	.	.	.	.	.	.	.	.
.	.	.	8c#X/	.	8cc#X\	.	.	.	.	.	.	.	.
4F\	6	.	8d/	.	8dd\	.	.	.	.	.	.	.	.
.	.	.	8A/J	.	8a\J	.	.	.	.	.	.	.	.
=67	=67	=67	=67	=67	=67	=67	=67	=67	=67	=67	=67	=67	=67
4G\	6	.	8B-/L	.	8b-\L	.	2.ryy	2.ryy	2.ryy	.	.	2.ryy	2.ryy
.	.	.	16B-/L	.	16b-\L	.	.	.	.	.	.	.	.
.	.	.	16A/JJ	.	16a\JJ	.	.	.	.	.	.	.	.
4G\	_	.	8B-/L	.	8b-\L	.	.	.	.	.	.	.	.
.	.	.	8e/	.	8ee\	.	.	.	.	.	.	.	.
4A\	#	.	8c#X/	.	8cc#X\	.	.	.	.	.	.	.	.
.	.	.	8A/J	.	8a\J	.	.	.	.	.	.	.	.
=68	=68	=68	=68	=68	=68	=68	=68	=68	=68	=68	=68	=68	=68
4D\	.	.	8d/L	.	8dd\L	.	2.ryy	2.ryy	2.ryy	.	.	2.ryy	2.ryy
.	.	.	16e/L	.	16ee\L	.	.	.	.	.	.	.	.
.	.	.	16f/JJ	.	16ff\JJ	.	.	.	.	.	.	.	.
4D\	.	.	4d/	.	4dd\	.	.	.	.	.	.	.	.
!	!	!	!	!	!LO:TX:b:i:t=Volti Gloria:mod=	!	!	!	!	!	!	!	!
4r	.	.	4r	.	4r	.	.	.	.	.	.	.	.
!LO:LB:g=original	!	!	!LO:PB:g=original	!	!LO:PB:g=original	!	!	!	!	!LO:LB:g=original	!	!	!
==	==	==	==	==	==	==	==	==	==	==	==	==	==
*-	*-	*-	*-	*-	*-	*-	*-	*-	*-	*-	*-	*-	*-
!!!system-decoration: [(g1)][(g2)][(g3)]s9
!!!RDF**kern: < = below
!!!RDF**kern: > = above
!!!RDF**kern: | = vertical stroke
!!!filter-modern: sic -sq | autostem -r | tie -s | shed -k -e "s/[<>]//g" | shed -e "s/^(\d+[\/\\]right)/$1yy/I; s/^(\d+[\/\\]left)/$1yy/I" | shed -e "s/LO:DY:(a|b|rj)/LO:dy:$1/L" | humtr -p | modori -m
!!!ENC: Mateusz Solarz
!!!END: 2021-11-24
!!!EED: Marta Chmielewska
!!!EEV: 2021-12-06
!!!ENC-modern: Marta Lawrence
!!!END-modern: 2022-07-26
